packages/icons/src/SVG/cut.svg

<svg width="12" height="12" viewBox="0 0 12 12" >
<path d="M1.9674 0L5.69374 4.76949L4.57826 6.19725C3.35364 4.61749 2.2531 3.19168 2.01164 2.85966C1.4151 2.03941 0.929022 0.811273 1.9674 0Z" />
<path fill-rule="evenodd" clip-rule="evenodd" d="M8.34901 11.0489C8.07755 10.7004 7.27992 9.67597 6.33625 8.46179C6.54586 8.19202 6.76084 7.91524 6.97731 7.63642C7.13576 7.43233 7.29513 7.22698 7.45387 7.02236L9.02634 9.03502C9.24607 8.91151 9.49856 8.83881 9.76819 8.83318C10.6426 8.81493 11.3662 9.50897 11.3845 10.3834C11.4027 11.2578 10.7087 11.9814 9.83429 11.9996C9.17299 12.0135 8.59793 11.6198 8.34901 11.0489ZM10.6244 10.3992C10.6339 10.8539 10.273 11.2301 9.81842 11.2396C9.3638 11.2491 8.98755 10.8882 8.97807 10.4336C8.96858 9.97897 9.32943 9.60273 9.78406 9.59324C10.2387 9.58375 10.6149 9.9446 10.6244 10.3992Z" />
<path fill-rule="evenodd" clip-rule="evenodd" d="M10.0189 2.85966C9.44268 3.65194 3.97459 10.6727 3.60216 11.1508C3.34287 11.6452 2.82949 11.9872 2.23187 11.9996C1.35747 12.0179 0.633838 11.3239 0.615586 10.4495C0.597335 9.57506 1.29138 8.85143 2.16577 8.83318C2.46767 8.82688 2.7516 8.90548 2.99472 9.04711L10.0631 0C11.1015 0.811273 10.6154 2.03941 10.0189 2.85966ZM2.216 11.2396C2.67063 11.2301 3.03149 10.8539 3.022 10.3992C3.01251 9.9446 2.63627 9.58375 2.18164 9.59324C1.72701 9.60273 1.36616 9.97897 1.37565 10.4336C1.38514 10.8882 1.76138 11.2491 2.216 11.2396ZM6.01761 7.3114C6.3675 7.3114 6.65113 7.02776 6.65113 6.67787C6.65113 6.32799 6.3675 6.04435 6.01761 6.04435C5.66773 6.04435 5.38409 6.32799 5.38409 6.67787C5.38409 7.02776 5.66773 7.3114 6.01761 7.3114Z" />
</svg>

<!-- Generated by IcoMoon.io -->
<svg version="1.1" xmlns="http://www.w3.org/2000/svg" width="12" height="12" viewBox="0 0 12 12">
<title>cut</title>
<path d="M1.967 0l3.726 4.769-1.115 1.428c-1.225-1.58-2.325-3.006-2.567-3.338-0.597-0.82-1.083-2.048-0.044-2.86z"></path>
<path d="M8.349 11.049c0.249 0.571 0.824 0.965 1.485 0.951 0.874-0.018 1.568-0.742 1.55-1.616s-0.742-1.568-1.616-1.55c-0.27 0.006-0.522 0.078-0.742 0.202l-1.572-2.013c-0.159 0.205-0.318 0.41-0.477 0.614-0.216 0.279-0.431 0.556-0.641 0.825 0.944 1.214 1.741 2.239 2.013 2.587zM10.624 10.399c0.009 0.455-0.351 0.831-0.806 0.84s-0.831-0.351-0.84-0.806c-0.009-0.455 0.351-0.831 0.806-0.84s0.831 0.351 0.84 0.806z"></path>
<path d="M10.019 2.86c-0.576 0.792-6.044 7.813-6.417 8.291-0.259 0.494-0.773 0.836-1.37 0.849-0.874 0.018-1.598-0.676-1.616-1.55s0.676-1.598 1.55-1.616c0.302-0.006 0.586 0.072 0.829 0.214l7.068-9.047c1.038 0.811 0.552 2.039-0.044 2.86zM2.216 11.24c0.455-0.010 0.815-0.386 0.806-0.84s-0.386-0.815-0.84-0.806-0.815 0.386-0.806 0.84c0.009 0.455 0.386 0.815 0.84 0.806zM6.018 7.311c0.35 0 0.634-0.284 0.634-0.634s-0.284-0.634-0.634-0.634c-0.35 0-0.634 0.284-0.634 0.634s0.284 0.634 0.634 0.634z"></path>
</svg>
